X:1
T:Old Hundredth
T:Old Hundredth
%%score 1 2 3 4
L:1/8
Q:1/4=100
M:4/4
K:C
V:1 treble-8 nm="Classical Guitar" snm="Guit."
V:2 treble-8 nm="Classical Guitar" snm="Guit."
V:3 treble-8 nm="Classical Guitar" snm="Guit."
V:4 treble-8 nm="Classical Guitar" snm="Guit."
V:1
 c8 | c2 B2 A2 G2 | c4 d4 | !fermata!e4 e4 | e2 e2 d2 c2 | f4 e4 | !fermata!d4 c4 | d2 e2 d2 c2 | %8
 A4 B4 | !fermata!c4 g4 | e2 c2 d2 f2 | e4 d4 | c8- | c8 |] %14
V:2
 G8 | G2 G2 E2 E2 | E4 G4 | !fermata!G4 G4 | c2 c2 B2 A2 | d4 G4 | !fermata!B4 G4 | B2 c2 B2 A2 | %8
 F4 F4 | !fermata!A4 e4 | c2 A2 A2 d2 | c4 B4 | G8- | G8 |] %14
V:3
 E8 | E2 E2 C2 B,2 | C4 D4 | !fermata!E4 E4 | G2 G2 D2 E2 | A4 E4 | !fermata!G4 E4 | F2 G2 G2 E2 | %8
 C4 D4 | !fermata!E4 B4 | A2 E2 F2 A2 | G4 F4 | E8- | E8 |] %14
V:4
 C8 | C2 E,2 A,2 G,2 | G,4 G,4 | !fermata!C4 C4 | C2 E2 G,2 A,2 | D4 C4 | !fermata!G,4 C4 | %7
 G,2 C2 B,2 A,2 | F,4 G,4 | !fermata!A,4 E,4 | A,2 A,2 D2 D2 | C4 G,4 | C8- | C8 |] %14

